X: 228
T: No_83_Bird_Dance_Song_(f).krn
N: Derived from No_83_Bird_Dance_Song_(f).krn
%%abc-version 2.0
%%abcx-abcm2ps-target-version 5.9.1 (29 Sep 2008)
%%abc-creator hum2abc beta
%%abcx-conversion-date 2019/03/15 08:38:45
%%humdrum-veritas 2224812865
%%humdrum-veritas-data 3357083849
%%linebreak <none>
%%barnumbers 0
L: 1/8
M: 2/4
K: E clef=bass
[K:clef=bass][M:2/4]B,/B,3/B,2 | 
B,A, (G,E,) | 
B,/B,3/ (B,A,) | 
G,E,E,2 ]|:  
G,G, (G,F,) | 
G,E,E,2 | 
G,E,E,2 | 
G,E,E,2 | 
z3/ C,/ (3C,C,C, | 
G,E,E,2 | 
z3/ C,/ (3C,C,C, | 
G,E,E,2 :|]  



